brandFactory_export/1.Light/Mail correo_1Light.svg

<?xml version="1.0" encoding="UTF-8"?>
<svg width="24px" height="24px" viewBox="0 0 24 24" version="1.1" xmlns="http://www.w3.org/2000/svg" xmlns:xlink="http://www.w3.org/1999/xlink">
    <title>1.Light/Mail correo_1Light</title>
    <g id="Symbols" stroke="none" stroke-width="1" fill="none" fill-rule="evenodd">
        <g id="1.Light/Mail-correo_1Light" fill="#5CB615" fill-rule="nonzero">
            <path d="M22.4134454,19.3613445 C22.2117647,19.6 21.8588235,19.7277311 21.3647059,19.7344538 C19.512605,19.7647059 2.05378151,19.7344538 1.86890756,19.7344538 C1.66722689,19.7176471 1.47563025,19.6336134 1.32773109,19.4957983 C1.10252101,19.2739496 0.988235294,18.9109244 0.988235294,18.4134454 L0.988235294,7.2 L9.74789916,12.7563025 C9.79831933,12.789916 10.5647059,13.3411765 11.6302521,13.3411765 C12.1680672,13.3411765 12.7865546,13.2 13.4218487,12.7798319 L22.6354087,7.18319328 L22.6252101,18.4941176 C22.6252101,18.497479 22.7058824,19.0151261 22.4134454,19.3613445 M1.87563025,4.98487395 L21.7781513,4.98823529 C21.902521,4.99159664 22.4907563,5.06554622 22.6084034,6.04705882 L12.8941176,11.9495798 C11.5630252,12.8201681 10.3764706,11.9966387 10.302521,11.9462185 L0.994957983,6.04033613 C1.01848739,5.77815126 1.09243697,5.41512605 1.30084034,5.19663866 C1.43865546,5.05546218 1.62689076,4.98487395 1.87563025,4.98487395 M23.6033613,18.4134454 L23.6201681,6.29579832 C23.5697479,4.45042017 22.4067227,4.0302521 21.7781513,4.00672269 L1.87563025,4 C1.35462185,4 0.904201681,4.18151261 0.581512605,4.52436975 C-0.0470588235,5.18991597 -0.00336134454,6.21848739 0.00336134454,6.30588235 L0.00336134454,18.410084 C0.00336134454,19.1831933 0.218487395,19.7848739 0.638655462,20.194958 C0.971428571,20.5176471 1.41512605,20.7058824 1.8789916,20.7159664 C1.99663866,20.7159664 9.74453782,20.7294118 15.4789916,20.7294118 C18.3764706,20.7294118 20.7563025,20.7260504 21.3815126,20.7159664 C22.1815126,20.702521 22.7865546,20.4537815 23.1764706,19.9798319 C23.7445378,19.2941176 23.6134454,18.4235294 23.6033613,18.4134454" id="Mail-correo_1Light"></path>
        </g>
    </g>
</svg>

<svg width="24" height="24" viewBox="0 0 24 24" xmlns="http://www.w3.org/2000/svg"><path d="M22.413 19.361c-.201.239-.554.367-1.048.373-1.852.03-19.311 0-19.496 0a.905.905 0 01-.541-.238c-.225-.222-.34-.585-.34-1.083V7.2l8.76 5.556c.05.034.817.585 1.882.585.538 0 1.157-.141 1.792-.561l9.213-5.597-.01 11.311c0 .003.08.521-.212.867M1.876 4.985l19.902.003c.125.004.713.078.83 1.06l-9.714 5.902c-1.331.87-2.518.047-2.591-.004L.995 6.04c.023-.262.097-.625.306-.843.138-.142.326-.212.575-.212m21.727 13.428l.017-12.117c-.05-1.846-1.213-2.266-1.842-2.29L1.876 4c-.521 0-.972.182-1.294.524-.63.666-.585 1.694-.579 1.782V18.41c0 .773.215 1.375.636 1.785.332.323.776.51 1.24.521.118 0 7.866.013 13.6.013 2.897 0 5.277-.003 5.903-.013.8-.013 1.405-.262 1.794-.736.569-.686.437-1.556.427-1.567" fill="#5CB615" fill-rule="nonzero"/></svg>
